X:1
T:Där borta
T:Ludvig Norman (1831-1885)
T:Kolartro
T:©PA Aglert Edition may be freely distributed, duplicated, performed and recorded
T:©PA Aglert Edition may be freely distributed, duplicated, performed and recorded
T:©PA Aglert Edition may be freely distributed, duplicated, performed and recorded
T:©PA Aglert Edition may be freely distributed, duplicated, performed and recorded
T:©PA Aglert Edition may be freely distributed, duplicated, performed and recorded
T:©PA Aglert Edition may be freely distributed, duplicated, performed and recorded
T:©PA Aglert Edition may be freely distributed, duplicated, performed and recorded
T:©PA Aglert Edition may be freely distributed, duplicated, performed and recorded
T:©PA Aglert Edition may be freely distributed, duplicated, performed and recorded
C:Ludvig Norman (1831-1885)
Z:©PA Aglert
Z:Edition may be freely distributed, duplicated, performed and recorded
%%score [ 1 2 3 4 ]
L:1/8
Q:1/4=105
M:6/8
K:D
V:1 treble nm="S"
V:2 treble nm="A"
V:3 treble-8 nm="T"
V:4 bass nm="B"
V:1
"^Allegro giacoso"!mf! A | (A>B)c edc | B2 A ^G2 G | (A3- AB^G) | A2 z z2 A |!<(! B2 B ccc | %6
w: Jag|sjöng _ en vi- sa för|vän- nen min så|tro- * * *|gen, och|lus- tigt sva- ra- de|
 ddd e2!<)!!f! f | (e3- eBc) | A3- A2!<(! B | (c2 d) e3-!<)! | e2 z !fermata!z2!f! A | %11
w: e- ko där- till i|sko- * * *|gen, _ i|sko- * gen.|_ Då|
"^marcato" _B>BA !>!d>d=c | A>AG =F2 A | _B>BA !>!=f>fe | !courtesy!^c>c!courtesy!=B A2!f! A | %15
w: ru- sa- de fram där en|ko- la- re- hop med|so- ti- ga mi- ner och|ho- tan- de rop. De|
 !>!d3 =c z _B | !>!A3 A z!mf! A | A>dc B>cd | e2 f d2!f! d | (g2 f) e2 d | c2 B A2 A | %21
w: skre- ko, de|skre- ko: Du|sjun- ger de rik- ti- ga|vi- sor ej, de|rik- * ti- ga|vi- sor ej, som|
!<(! (d3- df)!<)!e | !>!e3 d2!f! !>!F | !>!A3- A2 F | E3 D !fermata!z!mf! A || A>Bc edc | %26
w: oss _ _ be-|ha- ga, som|oss _ be-|ha- ga! Vi|gin- go, min älsk- ling och|
 B2 A ^G2 G | (A3- AB^G) | A2 z z2!mf! A | B>BB c2 c | ddd e2!p! f | (e3- eBc) | A3- A2 B | %33
w: jag, en stund så|stil- * * *|la, sist|kys- te jag lätt på|ro- sen- de mun den|lil- * * *|la, _ den|
 (c2 d) e3- | e2 z !fermata!z2!f! A | _B>BA d>d=c | A>AG =F2 A | _B>BA !>!=f>fe | %38
w: lil- * la.|_ Då|ru- sa- de å- ter de|ko- la- re fram, de|svar- ta ka- nal- jer, de|
 !courtesy!^c>c!courtesy!=B A z!f! A | !>!d3 =c z _B | !>!A3 A z A |!<(! A>dc B>c!<)!d | %42
w: ve- ta ej skam. De|skre- ko, de|skre- ko: Det|krän- ker, det krän- ker vår|
 (e2 f) d2 d | (g2 f) e2 d | (c2 B) A2 A | d3- dfe | e3 d2!f! !>!F | !>!A3- AAF | %48
w: ä- * ra, att|kys- * sas, att|kys- * sas vår|mi- * la så|nä- ra, vår|mi- * la så|
 E3 D !fermata!z!mf! A || A>Bc edc | B>BA ^G2 G | (A3 AB^G) | A2 z z2 A | B>BB ccc | ddd e2 f | %55
w: nä- ra! De|ko- la- re men- te jag|skul- le allt- så be-|gä- * * *|ra av|dem att få sjun- ga och|kys- sas ock- så med|
 (e3- eBc) | A3- A2 B | (c2 d) e3- | e3- e !fermata!z!f! A | !>!_B>BA d>d=c | A>AG =F2 A | %61
w: ä- * * *|ra, _ med|ä- * ra.|_ _ Men|ko- la- re tän- ka och|tro så be- satt, ty|
 _B>BA !>!=f>fe | !courtesy!^c>c!courtesy!=B A2!mf! A | A>dc B>cd | e>ef d2!f! d | !>!g>gf e>ed | %66
w: sa- tan dem spe- lar allt-|jämt si- na spratt, ja|sa- tan dem spe- lar allt-|jämt si- na spratt. Just|där- för vi må oss be-|
 (c2 B) A2 A | d2 d d>fe | !>!e3 d2!ff! F | A2 B A>GF | E3 D2 z |] %71
w: fli- * ta, på|ko- lar- tro att ej|li- ta, på|ko- lar- tro att ej|li- ta!|
V:2
!mf! A | F2 F FFF | =F2 F F2 E | E6 | E2 E (A3- |!<(! AG)G GGG | FFA A2!<)!!f! A | (A3 ^G3) | %8
w: Jag|sjöng en vi- sa för|vän- nen min så|tro-|gen, så tro-|* * gen, sva- ra- de|e- ko där- till i|sko- *|
 A3- A2 A | A3 ^G2 E | E3 A !fermata!z!f! A |"^marcato" _B>BA !>!d>d=c | A>AG =F2 A | %13
w: gen, _ i|sko- gen, i|sko- gen. Då|ru- sa- de fram där en|ko- la- re- hop med|
 _B>BA !>!=F>FA | A>A^G E2!f! A | !>!=F3 E z G | (!>!G2 !courtesy!^F) G z!mf! G | F>FF G>GG | %18
w: so- ti- ga mi- ner och|ho- tan- de rop. De|skre- ko, de|skre- * ko: Du|sjun- ger de rik- ti- ga|
 G2 F F2 z | z2 z z2!f! A | G2 F E2 G |!<(! (F3 G2)!<)! B | (!>!A2 G) F2!f! !>!F | !>!A3- A2 D | %24
w: vi- sor ej,|de|vi- sor ej, som|oss _ be-|ha- * ga, som|oss _ be-|
 C3 D !fermata!z!mf! A || F>FF FFF | =F2 F F2 E | E6 | E2!mf! E A3- | AGG G2 G | FFA A2!p! A | %31
w: ha- ga! Vi|gin- go, min älsk- ling och|jag, en stund så|stil-|la, sist kys-|* te jag lätt på|ro- sen- de mun den|
 (A3 ^G3) | A3- A2 A | A3 ^G2 E | E3 A !fermata!z!f! A | _B>BA d>d=c | A>AG =F2 A | %37
w: lil- *|la, _ den|lil- la, den|lil- la. Då|ru- sa- de å- ter de|ko- la- re fram, de|
 _B>BA !>!=F>FA | A>A^G E z!f! A | !>!=F3 E z G | (!>!G2 !courtesy!^F) G z G |!<(! F>FF G>GG!<)! | %42
w: svar- ta ka- nal- jer, de|ve- ta ej skam. De|skre- ko, de|skre- * ko: Det|krän- ker, det krän- ker vår|
 (G2 F) F2 z | z2 z z2 A | (G2 F) E2 G | F3 G2 B | (A2 G) F2!f! !>!F | !>!A3- AAD | %48
w: ä- * ra,|att|kys- * sas, vår|mi- la så|nä- * ra, vår|mi- * la så|
 C3 D !fermata!z!mf! F || F>FF FFF | =F>FF F2 E | E6 | E2 E A3- | A>GG GGG | FFA A2 A | (A3 ^G3) | %56
w: nä- ra! De|ko- la- re men- te jag|skul- le allt- så be-|gä-|ra av dem|_ att få sjun- ga och|kys- sas ock- så med|ä- *|
 A3- A2 A | A3 ^G2 E | E3 A !fermata!z!f! A | !>!_B>BA d>d=c | A>AG =F2 A | _B>BA !>!=F>FA | %62
w: ra, _ med|ä- ra, med|ä- ra. Men|ko- la- re tän- ka och|tro så be- satt, ty|sa- tan dem spe- lar allt-|
 A>A^G E2!mf! =G | F>FF G>GG | G>GF F2!f! F | !>!G>GA B>Bd | G3 G2 G | F2 F G>GB | %68
w: jämt si- na spratt, ja|sa- tan dem spe- lar allt-|jämt si- na spratt. Just|där- för vi må oss be-|fli- ta, på|ko- lar- tro att ej|
 (!>!A2 G) F2!ff! D | D2 D D>DD | C3 D2 z |] %71
w: li- * ta, på|ko- lar- tro att ej|li- ta!|
V:3
!mf! A | A2 A AAA | ^G2 A B2 B | (A2 B cdB) | c2 z z2 f | (dg)f!<(! eee | dd!<)!f e2!f! d | %7
w: Jag|sjöng en vi- sa för|vän- nen min så|tro- * * * *|gen, och|lus- * tigt sva- ra- de|e- ko där- till i|
 c3 d2 e | (c2 d) e2 f | e3- eBd | (d2 c) A !fermata!z!f! A |"^marcato" _B>BA !>!d>d=c | %12
w: sko- gen, i|sko- * gen, så|lus- * tigt i|sko- * gen. Då|ru- sa- de fram där en|
 A>AG =F2 A | _B>BA !>!d>d!courtesy!^c | e>ed c2!f! A | !>!_B3 G z e | !>!e3 A z!mf! A | %17
w: ko- la- re- hop med|so- ti- ga mi- ner och|ho- tan- de rop. De|skre- ko, de|skre- ko: Du|
 A>A^A B>BB | B2 ^A B2 z | z2 z z2!f! f | e2 d c2 c |!<(! d3- d2!<)! d | !>!c3 d2!f! !>!F | %23
w: sjun- ger de rik- ti- ga|vi- sor ej,|de|vi- sor ej, som|oss _ be-|ha- ga, som|
 !>!A3- A2 A | G3 F !fermata!z!mf! A || A>AA AAA | ^G2 A B2 B | (A2 B cdB) | c2 z z2!mf! f | %29
w: oss _ be-|ha- ga! Vi|gin- go, min älsk- ling och|jag, en stund så|stil- * * * *|la, sist|
 dgf e2 e | ddf e2!p! d | c3 d2 e | c>cd e2 f | e3- eBd | (d2 c) A !fermata!z!f! A | _B>BA d>d=c | %36
w: kys- te jag lätt på|ro- sen- de mun den|lil- la, på|ro- sen- de mun den|lil- * la, den|lil- * la. Då|ru- sa- de å- ter de|
 A>AG =F2 A | _B>BA !>!d>d!courtesy!^c | e>ed c z!f! A | !>!_B3 G z e | !>!e3 A z A | %41
w: ko- la- re fram, de|svar- ta ka- nal- jer, de|ve- ta ej skam. De|skre- ko, de|skre- ko: Det|
!<(! A>A^A B>B!<)!B | (B2 ^A) B2 z | z2 z z2 f | (e2 d) c2 c | d3 d2 d | c3 d2!f! !>!F | %47
w: krän- ker, det krän- ker vår|ä- * ra,|att|kys- * sas, vår|mi- la så|nä- ra, vår|
 !>!A3- AAA | G3 F !fermata!z!mf! A || A>AA AAA | ^G>GA B2 B | (A2 B cdB) | c2 z z2 f | d>gf eee | %54
w: mi- * la så|nä- ra! De|ko- la- re men- te jag|skul- le allt- så be-|gä- * * * *|ra av|dem att få sjun- ga och|
 ddf e2 d | c3 d2 d | c>cd e2 f | e3- eBd | (d2 c) A !fermata!z!f! A | !>!_B>BA d>d=c | %60
w: kys- sas ock- så med|ä- ra, få|kys- sas ock- så med|ä- * ra, med|ä- * ra. Men|ko- la- re tän- ka och|
 A>AG =F2 A | _B>BA !>!d>d!courtesy!^c | e>ed c2!mf! A | A>A^A B>BB | B>B^A B2!f! d | %65
w: tro så be- satt, ty|sa- tan dem spe- lar allt-|jämt si- na spratt, ja|sa- tan dem spe- lar allt-|jämt si- na spratt. Just|
 !>!d>dd d>dA | (A2 d) e2 c | d2 d d>dd | !>!!courtesy!^c3 d2!ff! A | F2 G F>BA | G3 F2 z |] %71
w: där- för vi må oss be-|fli- * ta, på|ko- lar- tro att ej|li- ta, på|ko- lar- tro att ej|li- ta!|
V:4
!mf! A, | D,2 D, D,D,D, | D,2 D, D,2 D, | (C,2 D, E,3) | A,2 z z2 D, | G,2!<(! G, A,A,A, | %6
w: Jag|sjöng en vi- sa för|vän- nen min så|tro- * *|gen, och|lus- tigt sva- ra- de|
 B,B,B,!<)! C2!f! D, | (E,6 | A,2 B,) C2 D, | E,6 | A,,3- A,, !fermata!z!f! A, | %11
w: e- ko där- till i|sko-|* * gen, i|sko-|gen. _ Då|
"^marcato" _B,>B,A, !>!D>D=C | A,>A,G, =F,2 A, | _B,>B,A, !>!D,>D,E, | E,>E,E, A,2!f! A, | %15
w: ru- sa- de fram där en|ko- la- re- hop med|so- ti- ga mi- ner och|ho- tan- de rop. De|
 !>!_B,,3 =C, z C, | !>!!courtesy!^C,3 C, z!mf! C, | D,>D,D, D,>D,D, | C,2 F, B,,2 z | z6 | %20
w: skre- ko, de|skre- ko: Du|sjun- ger de rik- ti- ga|vi- sor ej,||
 z2 z z2 A, |!<(! B,3- B,2!<)! G, | !>!A,3 D,2!f! !>!F, | !>!A,3- A,2 A, | %24
w: som|oss _ be-|ha- ga, som|oss _ be-|
 A,,3 D, !fermata!z!mf! A, || D,>D,D, D,D,D, | D,2 D, D,2 D, | (C,2 D, E,3) | A,2 z z2!mf! D, | %29
w: ha- ga! Vi|gin- go, min älsk- ling och|jag, en stund så|stil- * *|la, sist|
 G,G,G, A,2 A, | B,B,B, C2!p! D, | E,6 | A,2 B, C2 D, | E,6 | A,,3- A,, !fermata!z!f! A, | %35
w: kys- te jag lätt på|ro- sen- de mun på|ro-|sen- de mun den|lil-|la. _ Då|
 _B,>B,A, D>D=C | A,>A,G, =F,2 A, | _B,>B,A, !>!D,>D,E, | E,>E,E, A, z!f! A, | !>!_B,,3 =C, z C, | %40
w: ru- sa- de å- ter de|ko- la- re fram, de|svar- ta ka- nal- jer, de|ve- ta ej skam. De|skre- ko, de|
 !>!!courtesy!^C,3 C, z C, |!<(! D,>D,D, D,>D,!<)!D, | (C,2 F,) B,,2 z | z6 | z2 z z2 A, | %45
w: skre- ko: Det|krän- ker, det krän- ker vår|ä- * ra,||vår|
 B,3 B,2 G, | A,3 D,2!f! !>!F, | !>!A,3- A,A,A, | A,,3 D, !fermata!z!mf! A, || D,>D,D, D,D,D, | %50
w: mi- la så|nä- ra, vår|mi- * la så|nä- ra! De|ko- la- re men- te jag|
 D,>D,D, D,2 D, | (C,2 D, E,3) | A,,2 z z2 D, | G,>G,G, A,A,A, | B,B,B, C2 D, | E,3 E,2 E, | %56
w: skul- le allt- så be-|gä- * *|ra av|dem att få sjun- ga och|kys- sas ock- så med|ä- ra, få|
 A,>A,B, C2 D, | E,6 | A,,3- A,, !fermata!z!f! A, | !>!_B,>B,A, D>D=C | A,>A,G, =F,2 A, | %61
w: kys- sas ock- så med|ä-|ra. _ Men|ko- la- re tän- ka och|tro så be- satt, ty|
 _B,>B,A, !>!D,>D,E, | E,>E,E, A,2!mf! A, | D,>D,D, D,>D,D, | C,>C,F, B,,2!f! B,, | %65
w: sa- tan dem spe- lar allt-|jämt si- na spratt, ja|sa- tan dem spe- lar allt-|jämt si- na spratt. Just|
 !>!B,>B,A, G,>G,F, | (E,2 D,) C,2 A, | B,2 C B,>B,G, | !>!A,3 D,2!ff! A, | A,,2 A,, A,,>A,,A,, | %70
w: där- för vi må oss be-|fli- * ta, på|ko- lar- tro att ej|li- ta, på|ko- lar- tro att ej|
 A,,3 D,2 z |] %71
w: li- ta!|

